usr/share/icons/biglinux-icons-material/24/actions/format-border-set-diagonal-tl-br.svg

<svg xmlns="http://www.w3.org/2000/svg" viewBox="0 0 24 24">
  <defs id="defs3051">
    <style type="text/css" id="current-color-scheme">
      .ColorScheme-Text {
        color:#dedede;
      }
      </style>
  </defs>
 <path 
     style="fill:currentColor;fill-opacity:0.1;stroke:none" 
     d="M 4.7070312 3 L 5.7070312 4 L 12 4 L 12 10.292969 L 13.707031 12 L 20 12 L 20 18.292969 L 21 19.292969 L 21 19 L 21 12 L 21 11 L 21 4 L 21 3 L 20 3 L 13 3 L 12 3 L 5 3 L 4.7070312 3 z M 4 3.7070312 L 4 4 L 4 11 L 4 12 L 4 19 L 4 20 L 5 20 L 12 20 L 13 20 L 20 20 L 20.292969 20 L 19.292969 19 L 13 19 L 13 12.707031 L 11.292969 11 L 5 11 L 5 4.7070312 L 4 3.7070312 z M 13 4 L 20 4 L 20 11 L 13 11 L 13 4 z M 5 12 L 12 12 L 12 19 L 5 19 L 5 12 z "
     class="ColorScheme-Text"
     />
 <path 
     style="fill:currentColor;fill-opacity:0.5;stroke:none" 
     d="M 5.7070312 4 L 12 10.292969 L 12 4 L 5.7070312 4 z M 13 4 L 13 11 L 20 11 L 20 4 L 13 4 z M 5 4.7070312 L 5 11 L 11.292969 11 L 5 4.7070312 z M 5 12 L 5 19 L 12 19 L 12 12 L 5 12 z M 13.707031 12 L 20 18.292969 L 20 12 L 13.707031 12 z M 13 12.707031 L 13 19 L 19.292969 19 L 13 12.707031 z "
     class="ColorScheme-Text"
     />
 <path 
     style="fill:currentColor;fill-opacity:1.0;stroke:none" 
     d="M 4 3 L 4 3.7070312 L 20.292969 20 L 21 20 L 21 19.292969 L 4.7070312 3 L 4 3 z "
     class="ColorScheme-Text"
     />
</svg>

<svg xmlns="http://www.w3.org/2000/svg" viewBox="0 0 24 24"><defs id="defs3051"><style id="current-color-scheme" type="text/css">.ColorScheme-Text{color:#dedede}</style></defs><path d="m4.707 3 1 1H12v6.293L13.707 12H20v6.293l1 1V3H4.707zM4 3.707V20h16.293l-1-1H13v-6.293L11.293 11H5V4.707l-1-1zM13 4h7v7h-7V4zm-8 8h7v7H5v-7z" class="ColorScheme-Text" style="fill:currentColor;fill-opacity:.1;stroke:none"/><path d="M5.707 4 12 10.293V4H5.707zM13 4v7h7V4h-7zm-8 .707V11h6.293L5 4.707zM5 12v7h7v-7H5zm8.707 0L20 18.293V12h-6.293zm-.707.707V19h6.293L13 12.707z" class="ColorScheme-Text" style="fill:currentColor;fill-opacity:.5;stroke:none"/><path d="M4 3v.707L20.293 20H21v-.707L4.707 3H4z" class="ColorScheme-Text" style="fill:currentColor;fill-opacity:1;stroke:none"/></svg>
